(ALUM 1X HOLE PATTERN)
(T7  D=4.978 CR=0. TAPER=135DEG - ZMIN=-5.206 - DRILL)
G90 G94 G91.1 G40 G49 G17
G21
(OPERATION COMMENT 9DRILL ALUM HOLE PATTERN)
M5
T7 M6
S9000 M3
G54
(4419 POST EDIT TO FORCE Z AXIS MOVE BEFORE G0)
(UNIT = 1 0 = INCH 1 = MM)
G1 Z10 F500.
(4419 END OF EDIT)
G0 X0.Y0.
G43 Z16.24 H7
Z6.0
G98 G81 X0. Y0. Z-5.0 R5.08 F450.
Y12.7
Y25.4
Y38.1
Y50.8
Y63.5
Y76.2
Y88.9
Y101.6
Y114.3
Y127
Y139.7
Y152.4
Y165.1
Y177.8
Y190.5
Y203.2
Y215.9
Y228.6
Y241.3
Y254
Y266.7
Y279.4
Y292.1
Y304.8
Y317.5
Y330.2
Y342.9
Y355.6
Y368.3
Y381
Y393.7
Y406.4
Y419.1
Y431.8
Y444.5
Y457.2
Y469.9
Y482.6
Y495.3
Y508
Y520.7
G80
Z15
M30
