(ALUM 1X HOLE PATTERN)
(T7  D=4.978 CR=0. TAPER=135DEG - ZMIN=-5.206 - DRILL)
G90 G94 G91.1 G40 G49 G17
G21
(OPERATION COMMENT 9DRILL ALUM HOLE PATTERN)
M5
T7 M6
S9000 M3
G54
(4419 POST EDIT TO FORCE Z AXIS MOVE BEFORE G0)
(UNIT = 1 0 = INCH 1 = MM)
G1 Z10 F500.
(4419 END OF EDIT)
G0 X0. Y0.
G43 Z16.24 H7
Z6.0
G98 G81 X0. Y0. Z-5.0 R5.08 F450.
X12.7
X25.4
X0. Y12.7
X12.7 Y12.7
X25.4 Y12.7
X0. Y25.4
X12.7 Y25.4
X25.4 Y25.4
X0. Y38.1
X12.7 Y38.1
X25.4 Y38.1
X0. Y50.8
X12.7 Y50.8
X25.4 Y50.8
X0. Y63.5
X12.7 Y63.5
X25.4 Y63.5
X0. Y76.2
X12.7 Y76.2
X25.4 Y76.2
X0. Y88.9
X12.7 Y88.9
X25.4 Y88.9
X0. Y101.6
X12.7 Y101.6
X25.4 Y101.6
X0. Y114.3
X12.7 Y114.3
X25.4 Y114.3
X0. Y127
X12.7 Y127
X25.4 Y127
X0. Y139.7
X12.7 Y139.7
X25.4 Y139.7
X0. Y152.4
X12.7 Y152.4
X25.4 Y152.4
X0. Y165.1
X12.7 Y165.1
X25.4 Y165.1
X0. Y177.8
X12.7 Y177.8
X25.4 Y177.8
X0. Y190.5
X12.7 Y190.5
X25.4 Y190.5
X0. Y203.2
X12.7 Y203.2
X25.4 Y203.2
X0. Y215.9
X12.7 Y215.9
X25.4 Y215.9
X0. Y228.6
X12.7 Y228.6
X25.4 Y228.6
X0. Y241.3
X12.7 Y241.3
X25.4 Y241.3
X0. Y254
X12.7 Y254
X25.4 Y254
X0. Y266.7
X12.7 Y266.7
X25.4 Y266.7
X0. Y279.4
X12.7 Y279.4
X25.4 Y279.4
X0. Y292.1
X12.7 Y292.1
X25.4 Y292.1
X0. Y304.8
X12.7 Y304.8
X25.4 Y304.8
X0. Y317.5
X12.7 Y317.5
X25.4 Y317.5
X0. Y330.2
X12.7 Y330.2
X25.4 Y330.2
X0. Y342.9
X12.7 Y342.9
X25.4 Y342.9
X0. Y355.6
X12.7 Y355.6
X25.4 Y355.6
X0. Y368.3
X12.7 Y368.3
X25.4 Y368.3
X0. Y381
X12.7 Y381
X25.4 Y381
X0. Y393.7
X12.7 Y393.7
X25.4 Y393.7
X0. Y406.4
X12.7 Y406.4
X25.4 Y406.4
X0. Y419.1
X12.7 Y419.1
X25.4 Y419.1
X0. Y431.8
X12.7 Y431.8
X25.4 Y431.8
X0. Y444.5
X12.7 Y444.5
X25.4 Y444.5
X0. Y457.2
X12.7 Y457.2
X25.4 Y457.2
X0. Y469.9
X12.7 Y469.9
X25.4 Y469.9
X0. Y482.6
X12.7 Y482.6
X25.4 Y482.6
X0. Y495.3
X12.7 Y495.3
X25.4 Y495.3
X0. Y508
X12.7 Y508
X25.4 Y508
X0. Y520.7
X12.7 Y520.7
X25.4 Y520.7
X0. Y533.4
X12.7 Y533.4
X25.4 Y533.4
X0. Y546.1
X12.7 Y546.1
X25.4 Y546.1
X0. Y558.8
X12.7 Y558.8
X25.4 Y558.8
X0. Y571.5
X12.7 Y571.5
X25.4 Y571.5
X0. Y584.2
X12.7 Y584.2
X25.4 Y584.2
G80
Z15
M30
