(ALUM 1X HOLE PATTERN)
(T7  D=4.978 CR=0. TAPER=135DEG - ZMIN=-5.206 - DRILL)
G90 G94 G91.1 G40 G49 G17
G21
(OPERATION COMMENT 9DRILL ALUM HOLE PATTERN)
M5
T7 M6
S9000 M3
G54
(4419 POST EDIT TO FORCE Z AXIS MOVE BEFORE G0)
(UNIT = 1 0 = INCH 1 = MM)
G1 Z10 F500.
(4419 END OF EDIT)
G0 X0. Y0.
G43 Z16.24 H7
Z6.0
G98 G81 X0. Y0. Z-5.0 R5.08 F450.
X12.7
X25.4
X0. Y12.7
X12.7 Y12.7
X25.4 Y12.7
X0. Y25.4
X12.7 Y25.4
X25.4 Y25.4
X0. Y38.1
X12.7 Y38.1
X25.4 Y38.1
X0. Y50.8
X12.7 Y50.8
X25.4 Y50.8
X0. Y63.5
X12.7 Y63.5
X25.4 Y63.5
G80
Z15
M30
